X:1
T:Title
%%score ( 1 2 ) { 3 | 4 }
L:1/8
Q:1/4=95
M:4/4
K:Eb
V:1 treble nm="Grand Piano, Soprano"
V:2 treble 
V:3 bass nm="Choir Pad, Happy Words of Cheer"
V:4 bass 
V:1
 [EG]>[FA] [GB]>[_G=A] [=GB]4 | [EG]>[FA] [GB]>[_G=A] [=GB]4 | [GB]>[Ge] [Ad]>[Ac] [FB]4 | %3
w: By~Charle~H.~Maskell * * * *|||
 [FA]>[Ac] [GB]>[_G=A] [=GB]4 | [EG]>[FA] [GB]>[_G=A] [=GB]4 | [EG]>[FA] [GB]>[_G=A] [=GB]4 | %6
w: |||
 [GB]>[_Gc] [Fd]>[Fc] [Fd]2 [=Ge]>[Fd] | z2 B6 | [GB]>[Ge] [Ad]2 [Ad]2 [Ad]2 | %9
w: |||
 [FA]>[Ac] [GB]4 [EG]2 | [EG]>[GB] [FA]4 [DF]2 | [FA]>[Ac] [GB]4 [EG]2 | %12
w: |||
 [GB]>[Ge] [Ad]2 [Ad]2 [Ad]2 | [FA]>[Ac] [GB]4 [EG]2 | [GB]>[Ge] [Fd]>[Ec] [DB]2 [C=A]>[DB] | %15
w: |||
 z2 B6 | [GB]>[Ge] [Ad]2 [Ad]2 [Ad]2 | [FA]>[Ac] [GB]4 [EG]2 | [EG]>[GB] [FA]4 [DF]2 | %19
w: ||||
 [FA]>[Ac] [GB]4 [EG]2 | [EG]>[GB] [Ac]>[A=B] [Ac]2 [Bd]>[Bc] | [=Bd]2 [ce]4 [Ac]2 | %22
w: |||
 [_Gc]2 [=GB]>[FA] [EG]2 [FA]>[EG] | [DF]2 [B,E]6- | [B,E]2 z2 z4 |] %25
w: |||
V:2
 x8 | x8 | x8 | x8 | x8 | x8 | x8 | [Ec]2 D2 E2 F2 | x8 | x8 | x8 | x8 | x8 | x8 | x8 | %15
 [Ec]2 D2 E2 F2 | x8 | x8 | x8 | x8 | x8 | x8 | x8 | x8 | x8 |] %25
V:3
 z2 E,2 B,2 E2 | B,,2 E,2 B,2 B,2 | E2 F,2 E2 B,,2 | D2 E,2 B,2 B,2 | B,,2 E,2 B,2 E2 | %5
 B,,2 E,2 B,2 E2 | E,2 F,2 D2 F,2 | =A,2 F,2 G,2 _A,2 | z2 B,,F, B,[K:treble]D F2 | %9
 B,,2 E,,B,, E,G, B,2 | E,2 B,,F, B,D B,2 | B,,2 E,,B,, E,G, B,2 | z2 B,,F, B,[K:treble]D F2 | %13
 B,,2 E,,B,, E,G, B,2 | z2 F,2 B,2 F,2 | =A,2 F,2 G,2 _A,2 | z2 B,,F, B,[K:treble]D F2 | %17
 B,,2 E,,B,, E,G, B,2 | E,2 B,,F, B,D B,2 | B,,2 E,,B,, E,G, B,2 | z2[K:treble] A,2 C2 G,2 | %21
 D2 C2 E2 E2 | =A,2 B,4 B,2 | A,2 G,6- | G,2 z2 z4 |] %25
V:4
 z2 E,,2 E,2 [G,B,]2 | z2 E,,2 E,2 E,2 | [G,B,]2 F,,2 [F,B,]2 B,,,2 | [F,B,]2 E,,2 E,2 G,2 | %4
 z2 E,,2 E,2 [G,B,]2 | z2 E,,2 E,2 [G,B,]2 | z2 F,,2 [F,B,]2 F,,2 | F,2 B,,6 | z8 | z8 | z8 | z8 | %12
 z8 | z8 | z2 F,,2 F,2 F,,2 | F,2 B,,6 | z8 | z8 | z8 | z8 | z2 A,,2 A,2 G,,2 | %21
 [G,=B,]2 C,2 C2 A,2 | =A,,2 B,,4 B,,2- | B,,2 [E,,E,]6- | [E,,E,]2 z2 z4 |] %25

